ghost/admin/public/assets/icons/grab.svg

<svg xmlns="http://www.w3.org/2000/svg" width="32" height="32" viewBox="0 0 32 32">
  <title>grab</title>
  <path d="M9.125 27.438h4.563v4.563H9.125zm9.188 0h4.563v4.563h-4.563zm-9.188-9.125h4.563v4.563H9.125zm9.188 0h4.563v4.563h-4.563zM9.125 9.125h4.563v4.563H9.125zm9.188 0h4.563v4.563h-4.563zM9.125 0h4.563v4.563H9.125zm9.188 0h4.563v4.563h-4.563z"/>
</svg>

<svg version="1.1" xmlns="http://www.w3.org/2000/svg" width="32" height="32" viewBox="0 0 32 32">
<title>grab</title>
<path d="M9.125 27.438h4.563v4.563h-4.563zM18.313 27.438h4.563v4.563h-4.563zM9.125 18.313h4.563v4.563h-4.563zM18.313 18.313h4.563v4.563h-4.563zM9.125 9.125h4.563v4.563h-4.563zM18.313 9.125h4.563v4.563h-4.563zM9.125 0h4.563v4.563h-4.563zM18.313 0h4.563v4.563h-4.563z"></path>
</svg>
